pro/src/icons/stroke-clock.svg

<svg width="48" height="48" viewBox="0 0 48 48" fill="none" xmlns="http://www.w3.org/2000/svg">
<path id="icon" fill-rule="evenodd" clip-rule="evenodd" d="M24 43.0909C13.4545 43.0909 4.90909 34.5455 4.90909 24C4.90909 20.7523 5.71845 17.6905 7.15309 15.021C7.40265 14.5566 7.22851 13.9778 6.76414 13.7283C6.29977 13.4787 5.72101 13.6529 5.47146 14.1172C3.88973 17.0604 3 20.4322 3 24C3 35.5999 12.4001 45 24 45C35.5999 45 45 35.5999 45 24C45 12.4001 35.5999 3 24 3C20.3809 3 16.9697 3.92015 13.9891 5.54046C13.5259 5.79225 13.3546 6.37183 13.6064 6.83499C13.8582 7.29816 14.4377 7.46952 14.9009 7.21773C17.6094 5.7453 20.7082 4.90909 24 4.90909C34.5455 4.90909 43.0909 13.4545 43.0909 24C43.0909 34.5455 34.5455 43.0909 24 43.0909ZM24.9545 10.7509C24.9545 10.2238 24.5271 9.79639 24 9.79639C23.4728 9.79639 23.0454 10.2238 23.0454 10.7509V24C23.0454 24.2532 23.146 24.496 23.325 24.675L29.0523 30.4023C29.425 30.775 30.0294 30.775 30.4022 30.4023C30.775 30.0295 30.775 29.4251 30.4022 29.0523L24.9545 23.6046V10.7509Z" fill="currentColor"/>
</svg>

<svg xmlns="http://www.w3.org/2000/svg" width="48" height="48" fill="none"><path id="icon" fill="currentColor" fill-rule="evenodd" d="M24 43.09C13.455 43.09 4.91 34.546 4.91 24c0-3.248.808-6.31 2.243-8.979a.955.955 0 0 0-1.682-.904A20.8 20.8 0 0 0 3 24c0 11.6 9.4 21 21 21s21-9.4 21-21S35.6 3 24 3c-3.62 0-7.03.92-10.01 2.54a.954.954 0 1 0 .91 1.678A19 19 0 0 1 24 4.909c10.545 0 19.09 8.546 19.09 19.091S34.546 43.09 24 43.09m.954-32.34a.955.955 0 0 0-1.909 0V24c0 .253.101.496.28.675l5.727 5.727a.955.955 0 0 0 1.35-1.35l-5.448-5.447z" clip-rule="evenodd"/></svg>
